X:1
T:Burgundian Carol
M:3/4
L:1/4
K:F
 z2 d| d2 c| e2 d| c2 B| A2 d| d2 e| A2 =B| ^G2 A| A2 A| A2 A| G2 A|\
 B2 c| c2 A| A2 F| A2 G| F- G E| D3| E E F| F F G| F2 G| A2 A| d2 A|\
 F2 G| F- G E| D3| E E F| F F G| F F G| A2 A| =B2 ^c| d2 e| ^c2 ^d|\
 d3-| d2 z|
